X: 12553
T: Farewell To London
R: reel
M: 4/4
K: Gmajor
|:GB B2 c2 BA|GABd eBdB|AD D2 A3c|B2 dB cBAF|
GABG FGAF|GABG ABcA|dg g2 fgag|1 fdcA G3F:|2 fdcA G2Bc||
|:dg g2 fgaf|gdBG dcBd|c2 ec BcdG|FGAB c2Bc|
dg g2 fgaf|gdBG dcBd|c2 ec BcdB|BAFA G2Bc:|

